X:1
T:Title
%%score { 1 | ( 2 3 ) }
L:1/8
M:3/4
K:F
V:1 treble nm="Grand Piano"
V:2 bass 
V:3 bass 
V:1
 z2 z2[Q:1/4=94] A2 | c4 A2 | [B,EG][A,F] [A,F]2 [CEG]2 | [CFA]3 [CAc] [CGB][CFA] |[M:2/4] [CEG]4 | %5
[M:1/4] [CFA]2 |[M:3/4] [GB]3 [FA] [GB][EG] | [FA][GB] [Ac]2 [FA]2 | [EG]3 [FA] [GB][EG] | %9
 AB c2 c2 | d3 c BA | [FA]2 [EG]2 .[A,F]2 | [CFA]4 .[CEG]2 |[M:2/4] [A,F]4 |] %14
V:2
 z2 z2 [F,CF]2 | [F,A,F]4 [F,CF]2 | C,D, D,2 C,2 | F,3 F, E,F, |[M:2/4] C,4 |[M:1/4] F,2 | %6
[M:3/4] [C,C]3 [C,C] [C,C][C,C] | [F,C][F,C] [F,C]2 [F,C]2 | [C,C]3 [C,C] [C,C][C,C] | %9
 [G,CF][G,CE] [A,CF]2 [F,A,F]2 | [B,F]3 [A,CF][K:bass] [G,CE][F,CF] | C2 B,2 z =B, | C,4 z B, | %13
[M:2/4] F,4 |] %14
V:3
 x6 | x6 | x6 | x6 |[M:2/4] x4 |[M:1/4] x2 |[M:3/4] x6 | x6 | x6 | x6 | x4[K:bass] x2 | C,4 D,2 | %12
 z2 z2 C,2 |[M:2/4] x4 |] %14

